build/images/icons/results.svg

<svg width="32" height="32" viewBox="0 0 32 32" fill="none" xmlns="http://www.w3.org/2000/svg">
<path d="M23.5463 10.6661L15.9997 3.13281L8.45301 10.6661C6.37301 12.7461 5.33301 15.5195 5.33301 18.1861C5.33301 20.8528 6.37301 23.6661 8.45301 25.7461C10.533 27.8261 13.2663 28.8795 15.9997 28.8795C18.733 28.8795 21.4663 27.8261 23.5463 25.7461C25.6263 23.6661 26.6663 20.8528 26.6663 18.1861C26.6663 15.5195 25.6263 12.7461 23.5463 10.6661ZM7.99967 18.6661C8.01301 15.9995 8.82634 14.3061 10.3463 12.7995L15.9997 7.02615L21.653 12.8661C23.173 14.3595 23.9863 15.9995 23.9997 18.6661H7.99967Z"/>
</svg>

<svg width="32" height="32" fill="none" xmlns="http://www.w3.org/2000/svg"><path d="M23.546 10.666L16 3.133l-7.547 7.533a10.693 10.693 0 00-3.12 7.52c0 2.667 1.04 5.48 3.12 7.56a10.653 10.653 0 0015.093 0c2.08-2.08 3.12-4.893 3.12-7.56 0-2.666-1.04-5.44-3.12-7.52zM8 18.666c.013-2.667.826-4.36 2.346-5.867L16 7.027l5.653 5.84c1.52 1.494 2.333 3.133 2.347 5.8H8z"/></svg>
